X:1
T:Cuncti simus concanentes
T:Llibre vermell de Montserrat
L:1/8
M:3/8
K:Bb
V:1 treble nm="Violin"
V:1
|: B2 B | A2 A | (GF) G | A2 G | z2 D | F2 F | (GAF) | G2 z :| G2 G | B2 B | c d2 | d2 c | c2 B | %13
w: Cun- cti|sim- us|con- * ca-|nen- tes,|A-|ve Ma-|ri- * *|a.|Vir- go|so- la|ex- i-|sten- te,|en af-|
w: ||||||||Cla- ra|fa- ci-|e que|dix- it,|au- di-|
w: ||||||||En con-|ci- pi-|es, Ma-|ri- a,|au- di-|
w: ||||||||Pa- ri-|es- que|fi- li-|um, _|au di-|
 A G2 | F A2 | G2 z | G2 G | B2 B | c d2 | d2 c | c2 B | A G2 | F A2 | G2 z |: B2 B | A2 A | %26
w: fu- it|an- gel-|us|Gab- ri-|el est|ap- pel-|a- tus|at- que|mis- sus|cæ- li-|tus.|Cla- ra|fa- ci-|
w: te ca-|ris- si-|mi.|Cla- ra|fa- ci-|e que|dix- it,|au- di-|te ca-|ris- si-|mi.|En con-|ci- pi-|
w: te ca-|ris- si-|mi.|En con-|ci- pi-|es, Ma-|ri- a,|au- di-|te ca-|ris- si-|mi.|Pa- ri-|es- que|
w: te ca-|ris- si-|mi.|Pa- ri-|es- que|fi- li-|um, _|au- di-|te ca-|ris- si-|mi.|Vo- ca-|bis e-|
 ((GF) G) | A2 G | z2 D | F2 F | (GAF) | G2 z :| %32
w: e * que|dix- it,|A-|ve Ma-|ri- * *|a.|
w: es _ Ma|ri- a,|||||
w: fi- * li-|um, _|||||
w: um _ _|Ie- sum,|||||

